src/svgs/bug.svg

<?xml version="1.0" encoding="UTF-8" standalone="no"?>
<!-- Created with Inkscape (http://www.inkscape.org/) -->

<svg
   xmlns:dc="http://purl.org/dc/elements/1.1/"
   xmlns:cc="http://creativecommons.org/ns#"
   xmlns:rdf="http://www.w3.org/1999/02/22-rdf-syntax-ns#"
   xmlns:svg="http://www.w3.org/2000/svg"
   xmlns="http://www.w3.org/2000/svg"
   xmlns:sodipodi="http://sodipodi.sourceforge.net/DTD/sodipodi-0.dtd"
   xmlns:inkscape="http://www.inkscape.org/namespaces/inkscape"
   width="20"
   height="20"
   id="svg5738"
   version="1.1"
   inkscape:version="0.91+devel+osxmenu r12911"
   sodipodi:docname="bug.svg"
   viewBox="0 0 20 20">
  <defs
     id="defs5740" />
  <sodipodi:namedview
     id="base"
     pagecolor="#ffffff"
     bordercolor="#666666"
     borderopacity="1.0"
     inkscape:pageopacity="0.0"
     inkscape:pageshadow="2"
     inkscape:zoom="32"
     inkscape:cx="11.266766"
     inkscape:cy="11.262367"
     inkscape:document-units="px"
     inkscape:current-layer="layer1"
     showgrid="false"
     inkscape:window-width="1033"
     inkscape:window-height="844"
     inkscape:window-x="426"
     inkscape:window-y="17"
     inkscape:window-maximized="0"
     inkscape:snap-bbox="true"
     inkscape:snap-nodes="true"
     inkscape:bbox-paths="true"
     inkscape:bbox-nodes="true"
     inkscape:object-paths="true"
     inkscape:object-nodes="true"
     inkscape:snap-smooth-nodes="true">
    <inkscape:grid
       type="xygrid"
       id="grid5746"
       empspacing="5"
       visible="true"
       enabled="true"
       snapvisiblegridlinesonly="true" />
  </sodipodi:namedview>
  <metadata
     id="metadata5743">
    <rdf:RDF>
      <cc:Work
         rdf:about="">
        <dc:format>image/svg+xml</dc:format>
        <dc:type
           rdf:resource="http://purl.org/dc/dcmitype/StillImage" />
        <dc:title />
      </cc:Work>
    </rdf:RDF>
  </metadata>
  <g
     inkscape:label="Layer 1"
     inkscape:groupmode="layer"
     id="layer1"
     transform="translate(0,-1032.3622)">
    <path
       style="opacity:1;fill:#000000;fill-opacity:1;stroke:none;stroke-width:1;stroke-linecap:butt;stroke-linejoin:miter;stroke-miterlimit:4;stroke-dasharray:none;stroke-dashoffset:0;stroke-opacity:1;marker:none"
       d="M 10 5 C 8 5 8 7 8 7 C 8 7 8 8 9 8 L 11 8 C 12 8 12 7 12 7 C 12 7 12 5 10 5 z M 5.4570312 7.7460938 A 0.750075 0.750075 0 0 0 5.1132812 9.1445312 L 7 10.277344 L 7 10.75 L 5.5 10.75 A 0.750075 0.750075 0 1 0 5.5 12.25 L 7.0214844 12.25 C 7.0339198 12.392408 7.0553151 12.53273 7.0878906 12.671875 L 5.1132812 13.857422 A 0.75080492 0.75080492 0 0 0 5.8867188 15.144531 L 7.7910156 14.001953 C 8.3569246 14.625944 9.1507177 14.999626 10 15 C 10.84896 14.998622 11.641866 14.624239 12.207031 14 L 14.113281 15.144531 A 0.75080503 0.75080503 0 1 0 14.886719 13.857422 L 12.912109 12.671875 C 12.944685 12.53273 12.96608 12.392408 12.978516 12.25 L 14.5 12.25 A 0.750075 0.750075 0 1 0 14.5 10.75 L 13 10.75 L 13 10.277344 L 14.886719 9.1445312 A 0.750075 0.750075 0 0 0 14.521484 7.7460938 A 0.750075 0.750075 0 0 0 14.113281 7.8574219 L 12.208984 9 L 10.017578 9 L 10 9 L 7.7910156 9 L 5.8867188 7.8574219 A 0.750075 0.750075 0 0 0 5.4570312 7.7460938 z "
       transform="translate(0,1032.3622)"
       id="path6844" />
  </g>
</svg>

<?xml version="1.0" encoding="UTF-8" standalone="yes"?>
<svg viewBox="0 0 20 20">
  <g>
    <path d="M9,8h2c1,0,1-1,1-1s0-2-2-2S8,7,8,7S8,8,9,8z"/>
    <path d="M14.9,13.9l-2-1.2c0-0.1,0.1-0.3,0.1-0.4h1.5c0.4,0,0.8-0.3,0.8-0.7c0-0.4-0.3-0.8-0.7-0.8c0,0,0,0,0,0H13v-0.5l1.9-1.1
		c0.4-0.2,0.5-0.7,0.3-1c-0.1-0.2-0.4-0.4-0.6-0.4c-0.1,0-0.3,0-0.4,0.1L12.2,9H10h0H7.8L5.9,7.9C5.8,7.8,5.6,7.7,5.5,7.7
		C5,7.8,4.7,8.1,4.7,8.5c0,0.3,0.2,0.5,0.4,0.6L7,10.3v0.5H5.5c-0.4,0-0.8,0.3-0.8,0.7c0,0.4,0.3,0.8,0.7,0.8c0,0,0,0,0,0H7
		c0,0.1,0,0.3,0.1,0.4l-2,1.2c-0.4,0.2-0.5,0.7-0.3,1s0.7,0.5,1,0.3L7.8,14c0.6,0.6,1.4,1,2.2,1c0.8,0,1.6-0.4,2.2-1l1.9,1.1
		c0.4,0.2,0.8,0.1,1-0.3S15.2,14.1,14.9,13.9z"/>
  </g>
</svg>
